**kern	**kern	**kern	**kern
*staff3	*staff4	*staff1	*staff2
*clefF4	*clefF4	*clefG2	*clefG2
*k[f#c#]	*k[f#c#]	*k[f#c#]	*k[f#c#]
*M2/4	*M2/4	*M2/4	*M2/4
*D:	*D:	*D:	*D:
=-	=-	=-	=-
2r	2r	8ee' 8gg'	2r
.	.	8r	.
.	.	8a' 8ee'	.
.	.	8r	.
=364	=364	=364	=364
2r	24r	8dd' 8ff#'	2r
.	24dLL	.	.
.	24c#J	.	.
.	24cL	8r	.
.	24B	.	.
.	24B-JJ	.	.
.	8A	4r	.
.	8r	.	.
=365	=365	=365	=365
2r	2r	8e' 8g'	2r
.	.	8r	.
.	.	8A' 8e'	.
.	.	8r	.
=366	=366	=366	=366
2r	24r	8f#' 8a'	2r
.	24AALL	.	.
.	24BB-J	.	.
.	24BBL	8r	.
.	24C	.	.
.	24C#JJ	.	.
.	8D	4r	.
.	8r	.	.
*	*	*clefF4	*
=367	=367	=367	=367
2r	2r	8E' 8G'	2r
.	.	8r	.
.	.	8AA' 8E'	.
.	.	8r	.
=368	=368	=368	=368
2r	24r	8D' 8F#'	2r
.	24DDLL	.	.
.	24CC#J	.	.
.	24CCL	8r	.
.	24BBB	.	.
.	24BBB-JJ	.	.
.	8AAA	4r	.
.	8r	.	.
=369	=369	=369	=369
2r	8EE' 8GG'	2r	2r
.	8r	.	.
.	8AAA' 8EE'	.	.
.	8r	.	.
*	*	*clefG2	*
=370	=370	=370	=370
2r	8DD' 8FF#'	24r	2r
.	.	24aaLL	.
.	.	24bb-J	.
.	8r	24bbL	.
.	.	24ccc	.
.	.	24ccc#JJ	.
.	4r	8ddd	.
.	.	8r	.
=:|!	=:|!	=:|!	=:|!
*-	*-	*-	*-
